!!!OTL: Frisch auf, ihr Landsknecht alle!
!!!ARE: Europa, Mitteleuropa, Deutschland
!!!SCT: A0417C
!!!YEM: Copyright 1995, estate of Helmut Schaffrath.
**kern
*ICvox
*Ivox
*M3/2
*k[f#c#]
*D:
{2a
=1
1a
2a
=2
1b
2a
=3
2.g
4a
2b}
=4
{1g
2g
=5
1a
2a
=6
1ccn
2b
=7
1a}
{2a
=8
1a
2a
=9
1b
2a
=10
2.g
4a
2b}
=11
{1g
2g
=12
1a
2g
=13
2fn
1e
=14
1d}
{2d
=15
1fn
2g
=16
1a
2g
=17
1fn
2d
=18
1cn}
{2cn
=19
1fn
2g
=20
1a
2a
=21
1ccn
2b
=22
1a}
{2a
=23
2g
2fn
2g
=24
2a
1fn
=25
1d}
{2a
=26
2g
2fn
2g
=27
2a
1fn
=28
1d}
{2a
=29
1ccn
2b
=30
1a
2fn
=31
1g
2fn
=32
1.e
=33
1d}
==
!!!AGN: Romanze, Ballade, Lied, Kriegslied
!! M Praetorius, Mus. Sion. VIII. 1610 No. 219-221. Dorisch auf G.
!!!ONB: ESAC (Essen Associative Code) Database: ALTDEU
!!!AMT: simple triple
!!!AIN: vox
!!!EED: Helmut Schaffrath
!!!EEV: 1.0
*-
